X:7824
T:G\aangl\aat fr\aan \"Appelbo
C:anon.
O:Sweden
A:Dalarna
N:After \"Artbergs Kalle, org. transcription by Sveb Bohm.
N:Violin fingering by Rolf Monsen.
R:G\aangl\aat
Z:Transcribed by Frank Nordberg - http://www.musicaviva.com
F:http://abc.musicaviva.com/tunes/sweden/gaanglaat-appelbo.abc
D:Malungs spelmanslag RA 187
M:2/4
L:1/16
K:G
D2|"G"G2(GD) G2B2|"G"d6(Bc)|"G"d2(dB) d2(de)|"D"c2(cB) A2(AB)|
w: 0 3 3 0 3 1  3 1 2 3 3 1 3 0 2 2 1 0 0 1
"D"c2(cd) e2(dc)|"G"(Bc)(BA) G2(FG)|"D"A2(AF) D2(EF)|"G"G6::(Bd)|
w: 2 2 3 0 3 2 1 2 1 0 3 2 3 0 0 2 0 1 2 3 1 3
"G"g2g2 g2(Tfe)|"D"f2 f2 g2(gf)|"C"e2 e2 (eg)(fe)|"G"e2(d^c) d2(=cB)|
w: 2 2 2 1 0 1 1 1 2 1 0 0 0 2 1 0 0 3 2 3 2 1
"D"c2(cB) A2(GA)|"G"(Bc)(BA) G2(FG)|"D"(AB)(AF) D2(EF)|"G"G6:|
w: 2 2 1 0 3 0 1 2 1 0 3 2 3 0 1 0 2 0 1 2 3
W:
W:
W:  From Musica Viva - http://www.musicaviva.com
W:  the Internet center for free sheet music downloads.

